static/svg/moremoji/irritated.svg

<?xml version="1.0" encoding="UTF-8" standalone="no"?>
<svg
   xmlns:dc="http://purl.org/dc/elements/1.1/"
   xmlns:cc="http://creativecommons.org/ns#"
   xmlns:rdf="http://www.w3.org/1999/02/22-rdf-syntax-ns#"
   xmlns:svg="http://www.w3.org/2000/svg"
   xmlns="http://www.w3.org/2000/svg"
   xmlns:sodipodi="http://sodipodi.sourceforge.net/DTD/sodipodi-0.dtd"
   xmlns:inkscape="http://www.inkscape.org/namespaces/inkscape"
   viewBox="0 0 45 45"
   style="enable-background:new 0 0 45 45;"
   xml:space="preserve"
   version="1.1"
   id="svg2"
   inkscape:version="0.91 r13725"
   sodipodi:docname="irritated.svg"
   inkscape:export-filename="C:\Users\Soyez\Desktop\Stuff\My Art\somoji\irritated.png"
   inkscape:export-xdpi="1024"
   inkscape:export-ydpi="1024"><sodipodi:namedview
     pagecolor="#ffffff"
     bordercolor="#666666"
     borderopacity="1"
     objecttolerance="10"
     gridtolerance="10"
     guidetolerance="10"
     inkscape:pageopacity="0"
     inkscape:pageshadow="2"
     inkscape:window-width="1920"
     inkscape:window-height="1031"
     id="namedview20"
     showgrid="false"
     inkscape:zoom="1"
     inkscape:cx="145.00178"
     inkscape:cy="102.02584"
     inkscape:window-x="-8"
     inkscape:window-y="-8"
     inkscape:window-maximized="1"
     inkscape:current-layer="layer2"
     showguides="true" /><metadata
     id="metadata8"><rdf:RDF><cc:Work
         rdf:about=""><dc:format>image/svg+xml</dc:format><dc:type
           rdf:resource="http://purl.org/dc/dcmitype/StillImage" /><dc:title /></cc:Work></rdf:RDF></metadata><defs
     id="defs6"><clipPath
       id="clipPath16"
       clipPathUnits="userSpaceOnUse"><path
         id="path18"
         d="M 0,36 36,36 36,0 0,0 0,36 Z" /></clipPath><clipPath
       id="clipPath16-0"
       clipPathUnits="userSpaceOnUse"><path
         inkscape:connector-curvature="0"
         id="path18-0"
         d="M 0,36 36,36 36,0 0,0 0,36 Z" /></clipPath></defs><g
     inkscape:groupmode="layer"
     id="layer1"
     inkscape:label="Layer 1"><g
       id="g20"
       transform="matrix(1.25,0,0,-1.25,45,22.5)"><path
         inkscape:connector-curvature="0"
         d="m 0,0 c 0,-9.941 -8.059,-18 -18,-18 -9.941,0 -18,8.059 -18,18 0,9.941 8.059,18 18,18 C -8.059,18 0,9.941 0,0"
         style="fill:#ffcc4d;fill-opacity:1;fill-rule:nonzero;stroke:none"
         id="path22" /></g><g
       id="g32"
       transform="matrix(1.25,0,0,-1.25,19.086368,18.241154)"><path
         inkscape:connector-curvature="0"
         d="M 0,0 C 0,-1.934 -1.119,-3.5 -2.5,-3.5 -3.881,-3.5 -5,-1.934 -5,0 -5,1.933 -3.881,3.5 -2.5,3.5 -1.119,3.5 0,1.933 0,0"
         style="fill:#664500;fill-opacity:1;fill-rule:nonzero;stroke:none"
         id="path34" /></g><g
       id="g36"
       transform="matrix(1.25,0,0,-1.25,35.55371,18.241154)"><path
         inkscape:connector-curvature="0"
         d="M 0,0 C 0,-1.934 -1.119,-3.5 -2.5,-3.5 -3.881,-3.5 -5,-1.934 -5,0 -5,1.933 -3.881,3.5 -2.5,3.5 -1.119,3.5 0,1.933 0,0"
         style="fill:#664500;fill-opacity:1;fill-rule:nonzero;stroke:none"
         id="path38" /></g><g
       id="g40"
       transform="matrix(1.25,0,0,-1.25,25.689988,33.746504)"><path
         inkscape:connector-curvature="0"
         d="m 0,0 c 1.335,0.412 3.0135472,2.2894023 3.0135472,3.6334023 0,2.619 -3.3503481,1.74935 -4.0328205,1.6224072 -0.6824724,-0.1269428 -2.2958354,-0.7912862 -2.3118354,-1.0652862 0.02675,-0.14175 0.5870488,0.094798 1.057861,0.234573 0.4708122,0.1397753 3.2867949,0.586477 3.2867949,-1.115523 C 1.0135472,1.6075731 -2.871,0.501 -2.906,0.499 -2.916,0.498 -2.923,0.493 -2.933,0.492 -3.057,0.484 -3.163,0.427 -3.242,0.333 -3.247,0.327 -3.251,0.319 -3.257,0.312 -3.286,0.273 -3.311,0.234 -3.33,0.187 -3.341,0.16 -3.346,0.131 -3.352,0.102 -3.356,0.078 -3.368,0.056 -3.37,0.031 -3.371,0.021 -3.366,0.011 -3.366,0 c 0,-0.011 -0.005,-0.021 -0.004,-0.031 0.002,-0.026 0.013,-0.046 0.018,-0.071 0.006,-0.029 0.011,-0.058 0.023,-0.086 0.013,-0.033 0.032,-0.06 0.051,-0.088 0.016,-0.024 0.03,-0.047 0.049,-0.068 0.024,-0.024 0.052,-0.043 0.082,-0.062 0.023,-0.017 0.045,-0.033 0.071,-0.046 0.031,-0.015 0.065,-0.021 0.1,-0.027 0.024,-0.006 0.044,-0.018 0.07,-0.02 0.035,-0.002 2.90758086,-0.44067529 2.90758086,-2.1426753 C -0.34488962,-5.0741894 -3.5848168,-2.8599862 -3.6672272,-2.7944515 -2.5017729,-5.551592 1.2433717,-4.6153774 1.4348797,-2.7023933 1.5030833,-1.3601249 0.72782019,-0.51319664 0,0"
         style="fill:#664500;fill-opacity:1;fill-rule:nonzero;stroke:none"
         id="path42"
         sodipodi:nodetypes="cszczscccccccsccccccccccccc" /></g></g><g
     inkscape:groupmode="layer"
     id="layer2"
     inkscape:label="Layer 2"><g
       id="g4248"
       transform="translate(0.12649606,0.125)"><path
         inkscape:connector-curvature="0"
         d="m 37.44058,11.57068 c 0.220954,0.205573 0.402856,0.533647 0.506324,0.959812 0.254396,1.045562 -0.0586,2.286594 -0.697514,2.772307 -6.292666,4.775841 -10.950448,0.564601 -11.14591,0.382748 -0.586391,-0.545566 -0.771115,-1.812221 -0.412326,-2.827364 0.358141,-1.013302 1.121409,-1.395542 1.708041,-0.85465 0.165998,0.14945 3.847279,3.369185 8.930484,-0.488897 0.37957,-0.28713 0.78796,-0.244397 1.110901,0.05603"
         style="fill:#ffcc4d;fill-opacity:1;fill-rule:nonzero;stroke:none"
         id="path58-5-8-0" /><path
         inkscape:connector-curvature="0"
         d="M 8.5207873,18.349209 C 8.2998332,18.17884 8.1179312,17.906957 8.0144637,17.553778 7.760068,16.687283 8.0730617,15.658795 8.7119775,15.256267 15.004644,11.298353 19.662425,14.788362 19.857887,14.939071 c 0.586391,0.452129 0.771115,1.501851 0.412326,2.343136 -0.358141,0.839762 -1.121409,1.156536 -1.708041,0.70828 -0.165997,-0.123862 -3.847279,-2.792166 -8.9304836,0.405167 -0.3795695,0.237956 -0.7879595,0.202542 -1.1109011,-0.04644"
         style="fill:#ffcc4d;fill-opacity:1;fill-rule:nonzero;stroke:none"
         id="path58-5-8-0-9" /></g><g
       id="g4401"><g
         transform="matrix(-0.94951283,-0.29030341,-0.79171862,0.5936062,36.326461,9.3222113)"
         id="g56-4-0"
         style="fill:#fcab40;fill-opacity:1"><path
           sodipodi:nodetypes="sszs"
           id="path58-5-7"
           style="fill:#664500;fill-opacity:1;fill-rule:nonzero;stroke:none"
           d="M -7.7967371,9.2907689 C -7.4086039,12.576348 -3.4232573,16.829433 0.49478784,14.333815 1.8067665,13.498144 -2.4044926,12.259248 -4.5882223,9.798034 -6.771952,7.3368197 -7.8891189,8.5087496 -7.7967371,9.2907689 Z"
           inkscape:connector-curvature="0" /></g><g
         transform="matrix(0.94951283,-0.29030341,0.79171862,0.5936062,8.6872423,9.3175947)"
         id="g56-4-0-6"
         style="fill:#fcab40;fill-opacity:1"><path
           sodipodi:nodetypes="sszs"
           id="path58-5-7-5"
           style="fill:#664500;fill-opacity:1;fill-rule:nonzero;stroke:none"
           d="M -7.7967371,9.2907689 C -7.4086039,12.576348 -3.4232573,16.829433 0.49478784,14.333815 1.8067665,13.498144 -2.4044926,12.259248 -4.5882223,9.798034 -6.771952,7.3368197 -7.8891189,8.5087496 -7.7967371,9.2907689 Z"
           inkscape:connector-curvature="0" /></g></g><g
       id="g4395"
       transform="matrix(1,0,0,1.1244319,0,-1.9890717)"><g
         transform="matrix(-1.0239476,-0.12573316,-0.70301009,0.75024006,35.275636,4.3784974)"
         id="g56-4-0-0"
         style="fill:#fcab40;fill-opacity:1"><path
           sodipodi:nodetypes="sszs"
           id="path58-5-7-9"
           style="fill:#664500;fill-opacity:1;fill-rule:nonzero;stroke:none"
           d="M -7.7967371,9.2907689 C -7.4086039,12.576348 -3.4232573,16.829433 0.49478784,14.333815 1.8067665,13.498144 -2.4044926,12.259248 -4.5882223,9.798034 -6.771952,7.3368197 -7.8891189,8.5087496 -7.7967371,9.2907689 Z"
           inkscape:connector-curvature="0" /></g><g
         transform="matrix(1.0239476,-0.12573316,0.70301009,0.75024006,9.7243645,4.3737006)"
         id="g56-4-0-6-6"
         style="fill:#fcab40;fill-opacity:1"><path
           sodipodi:nodetypes="sszs"
           id="path58-5-7-5-8"
           style="fill:#664500;fill-opacity:1;fill-rule:nonzero;stroke:none"
           d="M -7.7967371,9.2907689 C -7.4086039,12.576348 -3.4232573,16.829433 0.49478784,14.333815 1.8067665,13.498144 -2.4044926,12.259248 -4.5882223,9.798034 -6.771952,7.3368197 -7.8891189,8.5087496 -7.7967371,9.2907689 Z"
           inkscape:connector-curvature="0" /></g></g><g
       id="g24"
       transform="matrix(0.44821102,0,0,-0.56985769,-14.849212,26.0265)" /><g
       id="g4377"
       transform="matrix(1.3055596,0,0,1.3055596,32.075479,-19.817331)"><g
         id="g4407"
         transform="translate(-2.8284271,2.1213203)"><g
           style="fill:#e75a70;fill-opacity:1"
           id="g28"
           transform="matrix(0.56986948,0,0,-0.44821102,-10.17124,25.107455)"><path
             d="m -0.27693465,0.64579114 c 0,0 -5.26520675,3.02645586 -4.42706535,10.12720886 0.7429568,6.294346 7.223,7.41 7.223,7.41 0,0 0.6166,-2.060721 1.4290936,-4.012522 C -0.87051721,11.627577 -2.6105494,8.2981779 2.5168972,3.739019 0.90577153,1.6669569 -0.27693465,0.64579114 -0.27693465,0.64579114 Z"
             style="fill:#e75a70;fill-opacity:1;fill-rule:nonzero;stroke:none"
             id="path30"
             inkscape:connector-curvature="0"
             sodipodi:nodetypes="cscccc" /></g><g
           style="fill:#e75a70;fill-opacity:1"
           id="g28-1"
           transform="matrix(0,0.56986948,0.44821102,0,-20.416801,24.005845)"><path
             d="m -0.27693465,0.64579114 c 0,0 -5.26520675,3.02645586 -4.42706535,10.12720886 0.7429568,6.294346 7.223,7.41 7.223,7.41 0,0 0.6166,-2.060721 1.4290936,-4.012522 C -0.87051721,11.627577 -2.6105494,8.2981779 2.5168972,3.739019 0.90577153,1.6669569 -0.27693465,0.64579114 -0.27693465,0.64579114 Z"
             style="fill:#e75a70;fill-opacity:1;fill-rule:nonzero;stroke:none"
             id="path30-0"
             inkscape:connector-curvature="0"
             sodipodi:nodetypes="cscccc" /></g><g
           style="fill:#e75a70;fill-opacity:1"
           id="g28-1-5"
           transform="matrix(-0.56986948,0,0,0.44821102,-19.053211,13.982999)"><path
             d="m -0.27693465,0.64579114 c 0,0 -5.26520675,3.02645586 -4.42706535,10.12720886 0.7429568,6.294346 7.223,7.41 7.223,7.41 0,0 0.6166,-2.060721 1.4290936,-4.012522 C -0.87051721,11.627577 -2.6105494,8.2981779 2.5168972,3.739019 0.90577153,1.6669569 -0.27693465,0.64579114 -0.27693465,0.64579114 Z"
             style="fill:#e75a70;fill-opacity:1;fill-rule:nonzero;stroke:none"
             id="path30-0-4"
             inkscape:connector-curvature="0"
             sodipodi:nodetypes="cscccc" /></g><g
           style="fill:#e75a70;fill-opacity:1"
           id="g28-1-4"
           transform="matrix(0,-0.56986948,-0.44821102,0,-9.13445,15.199353)"><path
             d="m -0.27693465,0.64579114 c 0,0 -5.26520675,3.02645586 -4.42706535,10.12720886 0.7429568,6.294346 7.223,7.41 7.223,7.41 0,0 0.6166,-2.060721 1.4290936,-4.012522 C -0.87051721,11.627577 -2.6105494,8.2981779 2.5168972,3.739019 0.90577153,1.6669569 -0.27693465,0.64579114 -0.27693465,0.64579114 Z"
             style="fill:#e75a70;fill-opacity:1;fill-rule:nonzero;stroke:none"
             id="path30-0-0"
             inkscape:connector-curvature="0"
             sodipodi:nodetypes="cscccc" /></g></g></g></g></svg>

<svg xmlns="http://www.w3.org/2000/svg" xml:space="preserve" viewBox="0 0 45 45"><path d="M0 0c0-9.941-8.059-18-18-18S-36-9.941-36 0s8.059 18 18 18S0 9.941 0 0" style="fill:#ffcc4d;fill-opacity:1;fill-rule:nonzero;stroke:none" transform="matrix(1.25 0 0 -1.25 45 22.5)"/><path d="M0 0c0-1.934-1.119-3.5-2.5-3.5S-5-1.934-5 0s1.119 3.5 2.5 3.5S0 1.933 0 0" style="fill:#664500;fill-opacity:1;fill-rule:nonzero;stroke:none" transform="matrix(1.25 0 0 -1.25 19.086 18.241)"/><path d="M0 0c0-1.934-1.119-3.5-2.5-3.5S-5-1.934-5 0s1.119 3.5 2.5 3.5S0 1.933 0 0" style="fill:#664500;fill-opacity:1;fill-rule:nonzero;stroke:none" transform="matrix(1.25 0 0 -1.25 35.554 18.241)"/><path d="M0 0c1.335.412 3.014 2.29 3.014 3.633 0 2.62-3.35 1.75-4.033 1.623s-2.296-.791-2.312-1.065c.027-.142.587.094 1.058.234.47.14 3.287.587 3.287-1.115S-2.871.5-2.906.499l-.027-.007a.43.43 0 0 1-.309-.159l-.015-.021A.6.6 0 0 1-3.33.187q-.015-.041-.022-.085C-3.356.078-3.368.056-3.37.031c-.001-.01.004-.02.004-.031s-.005-.021-.004-.031c.002-.026.013-.046.018-.071q.007-.044.023-.086.021-.048.051-.088.022-.036.049-.068a.5.5 0 0 1 .082-.062l.071-.046a.4.4 0 0 1 .1-.027c.024-.006.044-.018.07-.02.035-.002 2.908-.44 2.908-2.143-.347-2.432-3.587-.218-3.67-.152 1.166-2.758 4.911-1.821 5.103.092C1.503-1.36.728-.513 0 0" style="fill:#664500;fill-opacity:1;fill-rule:nonzero;stroke:none" transform="matrix(1.25 0 0 -1.25 25.69 33.747)"/><path d="M37.44 11.57c.222.206.403.534.507.96.254 1.046-.059 2.287-.698 2.773-6.292 4.776-10.95.564-11.146.383-.586-.546-.77-1.813-.412-2.828.358-1.013 1.122-1.395 1.708-.854.166.149 3.847 3.369 8.93-.49.38-.286.789-.244 1.112.057M8.52 18.35c-.22-.171-.402-.443-.506-.796-.254-.867.06-1.895.698-2.298 6.293-3.958 10.95-.468 11.146-.317.586.452.771 1.502.412 2.343-.358.84-1.121 1.157-1.708.708-.166-.123-3.847-2.792-8.93.406a.93.93 0 0 1-1.111-.047" style="fill:#ffcc4d;fill-opacity:1;fill-rule:nonzero;stroke:none" transform="translate(.126 .125)"/><g style="fill:#fcab40;fill-opacity:1"><path d="M-7.797 9.29c.388 3.286 4.374 7.54 8.292 5.044 1.312-.836-2.9-2.075-5.083-4.536s-3.301-1.29-3.209-.507" style="fill:#664500;fill-opacity:1;fill-rule:nonzero;stroke:none" transform="matrix(-.94951 -.2903 -.79172 .5936 36.326 9.322)"/></g><g style="fill:#fcab40;fill-opacity:1"><path d="M-7.797 9.29c.388 3.286 4.374 7.54 8.292 5.044 1.312-.836-2.9-2.075-5.083-4.536s-3.301-1.29-3.209-.507" style="fill:#664500;fill-opacity:1;fill-rule:nonzero;stroke:none" transform="matrix(.94951 -.2903 .79172 .5936 8.687 9.318)"/></g><g style="fill:#fcab40;fill-opacity:1"><path d="M-7.797 9.29c.388 3.286 4.374 7.54 8.292 5.044 1.312-.836-2.9-2.075-5.083-4.536s-3.301-1.29-3.209-.507" style="fill:#664500;fill-opacity:1;fill-rule:nonzero;stroke:none" transform="matrix(-1.02395 -.14138 -.70301 .8436 35.276 2.934)"/></g><g style="fill:#fcab40;fill-opacity:1"><path d="M-7.797 9.29c.388 3.286 4.374 7.54 8.292 5.044 1.312-.836-2.9-2.075-5.083-4.536s-3.301-1.29-3.209-.507" style="fill:#664500;fill-opacity:1;fill-rule:nonzero;stroke:none" transform="matrix(1.02395 -.14138 .70301 .8436 9.724 2.929)"/></g><g style="fill:#e75a70;fill-opacity:1"><path d="M-.277.646s-5.265 3.026-4.427 10.127c.743 6.294 7.223 7.41 7.223 7.41s.617-2.06 1.43-4.013c-4.82-2.542-6.56-5.872-1.432-10.431C.906 1.667-.277.646-.277.646" style="fill:#e75a70;fill-opacity:1;fill-rule:nonzero;stroke:none" transform="matrix(.744 0 0 -.58517 15.104 15.731)"/></g><g style="fill:#e75a70;fill-opacity:1"><path d="M-.277.646s-5.265 3.026-4.427 10.127c.743 6.294 7.223 7.41 7.223 7.41s.617-2.06 1.43-4.013c-4.82-2.542-6.56-5.872-1.432-10.431C.906 1.667-.277.646-.277.646" style="fill:#e75a70;fill-opacity:1;fill-rule:nonzero;stroke:none" transform="matrix(0 .744 .58517 0 1.727 14.293)"/></g><g style="fill:#e75a70;fill-opacity:1"><path d="M-.277.646s-5.265 3.026-4.427 10.127c.743 6.294 7.223 7.41 7.223 7.41s.617-2.06 1.43-4.013c-4.82-2.542-6.56-5.872-1.432-10.431C.906 1.667-.277.646-.277.646" style="fill:#e75a70;fill-opacity:1;fill-rule:nonzero;stroke:none" transform="matrix(-.744 0 0 .58517 3.508 1.208)"/></g><g style="fill:#e75a70;fill-opacity:1"><path d="M-.277.646s-5.265 3.026-4.427 10.127c.743 6.294 7.223 7.41 7.223 7.41s.617-2.06 1.43-4.013c-4.82-2.542-6.56-5.872-1.432-10.431C.906 1.667-.277.646-.277.646" style="fill:#e75a70;fill-opacity:1;fill-rule:nonzero;stroke:none" transform="matrix(0 -.744 -.58517 0 16.457 2.796)"/></g></svg>
